app/img/cart.svg

<svg width="22" height="22" viewBox="0 0 22 22" fill="none" xmlns="http://www.w3.org/2000/svg">
<path d="M20.0035 6.81175C19.9192 6.6899 19.8066 6.59031 19.6754 6.5215C19.5441 6.45269 19.3982 6.41672 19.25 6.41667H6.72193L5.66409 3.8775C5.52539 3.54312 5.29052 3.25746 4.98927 3.05673C4.68801 2.856 4.33393 2.74925 3.97193 2.75H1.83334V4.58334H3.97193L8.32059 15.0196C8.39025 15.1866 8.50775 15.3292 8.65831 15.4295C8.80887 15.5298 8.98575 15.5834 9.16668 15.5833H16.5C16.8823 15.5833 17.2242 15.3459 17.3589 14.9893L20.1089 7.656C20.1609 7.51724 20.1785 7.36794 20.1601 7.22091C20.1417 7.07387 20.088 6.93348 20.0035 6.81175ZM15.8648 13.75H9.77809L7.48643 8.25H17.9273L15.8648 13.75Z" fill="white"/>
<path d="M9.625 19.25C10.3844 19.25 11 18.6344 11 17.875C11 17.1156 10.3844 16.5 9.625 16.5C8.86561 16.5 8.25 17.1156 8.25 17.875C8.25 18.6344 8.86561 19.25 9.625 19.25Z" fill="white"/>
<path d="M16.0417 19.25C16.8011 19.25 17.4167 18.6344 17.4167 17.875C17.4167 17.1156 16.8011 16.5 16.0417 16.5C15.2823 16.5 14.6667 17.1156 14.6667 17.875C14.6667 18.6344 15.2823 19.25 16.0417 19.25Z" fill="white"/>
</svg>

<svg width="22" height="22" fill="none" xmlns="http://www.w3.org/2000/svg"><path d="M20.003 6.812a.917.917 0 00-.753-.395H6.722l-1.058-2.54A1.828 1.828 0 003.972 2.75H1.833v1.833h2.139L8.32 15.02a.916.916 0 00.846.563H16.5a.919.919 0 00.859-.594l2.75-7.333a.916.916 0 00-.106-.844zm-4.138 6.938H9.778l-2.292-5.5h10.441l-2.062 5.5zM9.625 19.25a1.375 1.375 0 100-2.75 1.375 1.375 0 000 2.75zM16.042 19.25a1.375 1.375 0 100-2.75 1.375 1.375 0 000 2.75z" fill="#fff"/></svg>
